assets/azureloganalyticsworkspaces/original.svg

<svg height="18" viewBox="0 0 18 18" width="18" xmlns="http://www.w3.org/2000/svg" xmlns:xlink="http://www.w3.org/1999/xlink"><linearGradient id="a" gradientUnits="userSpaceOnUse" x1="5.23" x2="5.23" y1="17.45" y2="8.09"><stop offset="0" stop-color="#1988d9"/><stop offset=".9" stop-color="#54aef0"/></linearGradient><linearGradient id="b" gradientUnits="userSpaceOnUse" x1="11.5" x2="11.5" y1="12.45" y2=".55"><stop offset="0" stop-color="#198ab3"/><stop offset=".01" stop-color="#198bb4"/><stop offset=".44" stop-color="#27b2d7"/><stop offset=".79" stop-color="#2fcbed"/><stop offset="1" stop-color="#32d4f5"/></linearGradient><path d="m5.59 13.13h4.32v4.32h-4.32zm-4.44 4.32h3.72v-4.32h-4.32v3.72a.6.6 0 0 0 .6.6m-.6-5h4.32v-4.36h-4.32z" fill="url(#a)"/><path d="m11.5.55a5.89 5.89 0 0 1 5.95 6 5.89 5.89 0 0 1 -5.95 5.95h-5.95v-6a5.89 5.89 0 0 1 5.95-5.95" fill="url(#b)" fill-rule="evenodd"/><path d="m7.59 5.65h1.36v4.08h-1.36zm2.72 1.36h1.36v2.72h-1.36zm2.72-2.72h1.36v5.44h-1.36z" fill="#fff"/></svg>

<svg xmlns="http://www.w3.org/2000/svg" id="b388e944-5509-49c9-84d7-f38bffa995b2" width="18" height="18" viewBox="0 0 18 18"><defs><linearGradient id="a997e203-1d7d-4cb9-b131-5dc44e029b46" x1="5.23" x2="5.23" y1="17.45" y2="8.09" gradientUnits="userSpaceOnUse"><stop offset="0" stop-color="#1988d9"/><stop offset=".9" stop-color="#54aef0"/></linearGradient><linearGradient id="e122e9d8-aee5-4f1a-a60e-b1eae355daa5" x1="11.5" x2="11.5" y1="12.45" y2=".55" gradientUnits="userSpaceOnUse"><stop offset="0" stop-color="#198ab3"/><stop offset=".01" stop-color="#198bb4"/><stop offset=".44" stop-color="#27b2d7"/><stop offset=".79" stop-color="#2fcbed"/><stop offset="1" stop-color="#32d4f5"/></linearGradient></defs><title>Icon-manage-307</title><path fill="url(#a997e203-1d7d-4cb9-b131-5dc44e029b46)" d="M5.59 13.13h4.32v4.32H5.59Zm-4.44 4.32h3.72v-4.32H.55v3.72a.6.6 0 0 0 .6.6m-.6-5h4.32V8.09H.55Z"/><path fill="url(#e122e9d8-aee5-4f1a-a60e-b1eae355daa5)" fill-rule="evenodd" d="M11.5.55a5.89 5.89 0 0 1 5.95 6 5.89 5.89 0 0 1-5.95 5.95H5.55v-6A5.89 5.89 0 0 1 11.5.55"/><path fill="#fff" d="M7.59 5.65h1.36v4.08H7.59zM10.31 7.01h1.36v2.72h-1.36zM13.03 4.29h1.36v5.44h-1.36z"/></svg>
